X: 40568
T: Tommy Sullivan's
R: hornpipe
M: 4/4
K: Dmajor
FG|Adfd Adfd|Adge B2ed|cdec A2Bc|defd A2FG|Adfd Adfd|Adge B2ed|cdec AABc|d2f2 d2:|
FG|A2f2 fgfe|B2g2 g3e|cdec A2Bc|defd A2FG|A2f2 fgfe|B2g2 g3e|cdec AABc|d2f2 d2:|

